!!!COM: Haydn, Franz Joseph
!!!ONM: Opus 09, No. 3
!!!OTL:
!!!OMV: 1
!!!SCT: H /disk/dos2/musedata_2000/haydn/traut/quart/op09n3/stage1/01
!!!SCA: Thematisch-bibliographisches Werkevererzeichnis (A. van Hoboken)
!!!YOR: Trautwein Edition
!!!EED: Frances Bennion
!!!ENC: Frances Bennion
!!!CDT: 1732/3/31/-1809/5/31/
!!!OCY: Österreich
!!!YEC: Copyright (c) 1994, 2000 Center for Computer Assisted Research in the Humanities
!!!YEM: Rights to all derivative editions reserved.
!!!YEM: Refer to licensing agreement for further details.
!!!YEN: United States of America
**kern	**kern	**kern	**kern	**kern
*k[f#]	*k[f#]	*k[f#]	*k[f#]	*k[f#]
*G:	*G:	*G:	*G:	*G:
*clefG	*clefG	*clefG	*clefC3	*clefF4
*M4/4	*M4/4	*M4/4	*M4/4	*M4/4
*tb48	*tb48	*tb48	*tb48	*tb48
=1	=1	=1	=1	=1
2g	1r	8B	8G	8GG
.	.	8B	8G	8G
.	.	8B	8G	8G
.	.	8B	8G	8G
8b	.	8B	8G	8G
16a	.	8B	8G	8G
16g	.	.	.	.
8g	.	8B	8G	8G
8g	.	8B	8G	8G
=2	=2	=2	=2	=2
8ee	1r	8c	8G	8GG
16dd#	.	8c	8G	8G
16ee	.	.	.	.
8ee	.	8c	8G	8G
4r	.	8c	8G	8G
.	.	8c	8G	8G
8ff#	.	8c	8G	8G
8gg	.	8c	8G	8G
8ee	.	8c	8G	8G
=3	=3	=3	=3	=3
16ee	1r	8B	8G	8GG
16dd	.	.	.	.
16cc#	.	8B	8G	8G
16dd	.	.	.	.
8dd	.	8B	8G	8G
4r	.	8B	8G	8G
.	.	8B	8G	8G
8ff#	.	8r	8r	8r
8gg	.	[4G	4D	4BB
8B	.	.	.	.
=4	=4	=4	=4	=4
4B	1r	4.G]	2E	2C
8A	.	.	.	.
8e	.	8c	.	.
4e	.	4c	2F#	2D
8d	.	8B	.	.
8c	.	8A	.	.
=5	=5	=5	=5	=5
16c	1r	16A	1G	4.GG
16B	.	16G	.	.
16e	.	16c	.	.
16d	.	16B	.	.
8d	.	8B	.	.
2r	.	16G	.	8E
.	.	16g	.	.
.	.	16g	.	8D
.	.	16f#	.	.
.	.	16f#	.	8C
.	.	16e	.	.
.	.	16e	.	8BB
.	.	16d	.	.
8r	.	16d	.	8AA
.	.	16c	.	.
=6	=6	=6	=6	=6
2g	1r	16B	16G	4GG
.	.	16d	16B	.
.	.	16B	16G	.
.	.	16d	16B	.
.	.	16B	16G	4r
.	.	16d	16B	.
.	.	16B	16G	.
.	.	16d	16B	.
8b	.	16B	16G	4GG
.	.	16d	16B	.
16a	.	16B	16G	.
16g	.	16d	16B	.
8g	.	16B	16G	4r
.	.	16d	16B	.
8g	.	16B	16G	.
.	.	16d	16B	.
=7	=7	=7	=7	=7
8ee	1r	16c	16G	4GG
.	.	16e	16c	.
16dd#	.	16c	16G	.
16ee	.	16e	16c	.
8ee	.	16c	16G	4r
.	.	16e	16c	.
8r	.	16c	16G	.
.	.	16e	16c	.
16ff#	.	8c	8G	4GG
16gg	.	.	.	.
16ff#	.	4r	4r	.
16gg	.	.	.	.
16ff#	.	.	.	4r
16gg	.	.	.	.
8r	.	8e	8c	.
=8	=8	=8	=8	=8
16ee	1r	8d	8B	4GG
16dd	.	.	.	.
16cc#	.	4r	4r	.
16dd	.	.	.	.
16cc#	.	.	.	8r
16dd	.	.	.	.
2r	.	16G	8G	8E
.	.	16g	.	.
.	.	16g	[2G	8D
.	.	16f#	.	.
.	.	16f#	.	8C
.	.	16e	.	.
.	.	16e	.	8BB
.	.	16d	.	.
8r	.	16d	.	8AA
.	.	16c	.	.
=9	=9	=9	=9	=9
4d	4B	4B	4G]	4GG
8d	16B	2r	2r	2r
.	16G	.	.	.
8e	8c	.	.	.
8d	16B	.	.	.
.	16G	.	.	.
8e	8c	.	.	.
8d	8B	8r	8r	8r
8f#	8A	8cc	8d	8D
=10	=10	=10	=10	=10
8g	8G	4b	4d	4GG
8d	8B	.	.	.
8d	16B	2r	2r	2r
.	16G	.	.	.
8e	8c	.	.	.
8d	16B	.	.	.
.	16G	.	.	.
8e	8c	.	.	.
8d	8B	8r	8r	8r
8f#	8A	8cc	8d	8D
=11	=11	=11	=11	=11
2g	2G	4b	2d	8GG
.	.	.	.	8BB
.	.	[2.g	.	8BB
.	.	.	.	8BB
8g	2G	.	8B	8BB
8f	.	.	8B	8BB
8e	.	.	8B	8BB
8d#	.	.	8B	8BB
=12	=12	=12	=12	=12
4d#	2G	1g_	8c	8C
.	.	.	8c	8C
[4e	.	.	8c	8C
.	.	.	8c	8C
16e]	2G	.	8c	8C
16f#	.	.	.	.
16g	.	.	8c	8C
16f#	.	.	.	.
8g	.	.	8c	8C
16f#	.	.	8c	8C
16e	.	.	.	.
=13	=13	=13	=13	=13
8e	1r	2.g]	8B	8BB
8d	.	.	8B	8BB
4.d	.	.	8B	8BB
.	.	.	8B	8BB
.	.	.	8B	8BB
8g	.	.	8B	8BB
8b	.	4d	8B	8BB
8dd	.	.	8B	8BB
=14	=14	=14	=14	=14
16dd	1r	2.e	8A	8AA
16cc	.	.	.	.
16b	.	.	8A	8A
16cc	.	.	.	.
2cc	.	.	8A	8A
.	.	.	8A	8A
.	.	.	8A	8A
.	.	.	8A	8A
4e-	.	4e-	8B-	8G
.	.	.	8B-	8G
=15	=15	=15	=15	=15
8d	1r	8d	8A	8F#
32e	.	8d	8A	8F#
32f#	.	.	.	.
32g	.	.	.	.
32a	.	.	.	.
32b	.	8d	8A	8F#
32cc	.	.	.	.
32dd	.	.	.	.
32ee	.	.	.	.
32ff#	.	8d	8A	8F#
32gg	.	.	.	.
32aa	.	.	.	.
32bb	.	.	.	.
8ccc	.	8d	8A	8F#
4r	.	4r	4r	4r
8cc	.	8d	8A	8F#
=16	=16	=16	=16	=16
16b	1r	4d	4G	4G
16g	.	.	.	.
16f#	.	.	.	.
16g	.	.	.	.
8G	.	8r	8r	8r
2r	.	16G	8G	8E
.	.	16c	.	.
.	.	16c	4G	8D
.	.	16B	.	.
.	.	16G	.	8C
.	.	16e	.	.
.	.	16e	8r	8BB
.	.	16d	.	.
8r	.	16G	8c	8AA
.	.	16f#	.	.
=17	=17	=17	=17	=17
4.bb	1r	4g	4B	4GG
.	.	4.g	4.e	2r
16ccc	.	.	.	.
16aa#	.	.	.	.
8bb	.	.	.	.
16ff#	.	8a	8f#	.
16dd#	.	.	.	.
8ee	.	8b	8g	8r
16f#	.	16d#	8c	8A
16d#	.	16f#	.	.
=18	=18	=18	=18	=18
4e	1r	8e	8B	8G
.	.	16f#	8c	8A
.	.	16d#	.	.
4r	.	4e	4B	4G
4.aa	.	4r	4r	2r
.	.	[4f#	[4d	.
16bb	.	.	.	.
16gg#	.	.	.	.
=19	=19	=19	=19	=19
8aa	1r	8f#]	8d]	4.r
16ee	.	8g	8e	.
16cc#	.	.	.	.
8dd	.	8a	8f#	.
16e	.	16c#	8A	8G
16c#	.	16e	.	.
4d	.	8d	4A	8F#
.	.	16e	.	8G
.	.	16c#	.	.
4r	.	8d	8A	8F#
.	.	8r	8r	8r
=20	=20	=20	=20	=20
2gg	1r	1r	8G	8E
.	.	.	8G	8E
.	.	.	8G	8E
.	.	.	8G	8E
4.B-	.	.	8F	8D
.	.	.	8F	8D
.	.	.	8F	8D
16A	.	.	8F	8D
16B-	.	.	.	.
=21	=21	=21	=21	=21
4.A	1r	4.a	8E	8C#
.	.	.	8E	8C#
.	.	.	8E	8C#
8B-	.	8g#	8F	8D
8A	.	8a	8E	8C#
8B-	.	8g#	8F	8D
8A	.	8a	8E	8C#
8B-	.	8g#	8F	8D
=22	=22	=22	=22	=22
4A	1r	4a	4E	4C#
4.eee	.	2A	4r	4r
.	.	.	2e	2c#
8ccc#	.	.	.	.
8aa	.	[4A	.	.
8gg	.	.	.	.
=23	=23	=23	=23	=23
8ff#	1r	8A]	8f#	8d
8ddd	.	2..r	2..r	2..r
8ccc#	.	.	.	.
8bb	.	.	.	.
8aa	.	.	.	.
8gg	.	.	.	.
8ff#	.	.	.	.
8ee	.	.	.	.
=24	=24	=24	=24	=24
2dd	2d	[1d	8A	8F#
.	.	.	8A	8F#
.	.	.	8A	8F#
.	.	.	8A	8F#
8dd	2d	.	8F#	8F#
8cc	.	.	8F#	8F#
8b	.	.	8F#	8F#
8a#	.	.	8F#	8F#
=25	=25	=25	=25	=25
4a#	2d	1d_	8G	8G
.	.	.	8G	8G
4..b	.	.	8G	8G
.	.	.	8G	8G
.	2d	.	8G	8G
.	.	.	8G	8G
16cc#	.	.	.	.
8cc#	.	.	8G	8G
16b	.	.	8G	8G
16cc#	.	.	.	.
=26	=26	=26	=26	=26
4dd	2d	1d_	8F#	8F#
.	.	.	8A	8F#
[4dd	.	.	8A	8F#
.	.	.	8A	8F#
16dd]	2d	.	8A	8F#
16ee	.	.	.	.
16cc	.	.	8A	8F#
16dd	.	.	.	.
16b	.	.	8F#	8F#
16cc	.	.	.	.
16a	.	.	8F#	8F#
16b	.	.	.	.
=27	=27	=27	=27	=27
4a#	2d	1d_	8G	8G
.	.	.	8G	8G
4..b	.	.	8G	8G
.	.	.	8G	8G
.	2d	.	8G	8G
.	.	.	8G	8G
16cc#	.	.	.	.
8cc#	.	.	8G	8G
16b	.	.	8G	8G
16cc#	.	.	.	.
=28	=28	=28	=28	=28
2dd	2d	2d]	8F#	8F#
.	.	.	8A	8F#
.	.	.	8A	8F#
.	.	.	8A	8F#
2dd#	2d#	2c	8A	8F#
.	.	.	8A	8F#
.	.	.	8A	8F#
.	.	.	8A	8F#
=29	=29	=29	=29	=29
8ee	8e	8B	8B	8G
32g	2..r	8r	8r	8r
32b	.	.	.	.
32ee	.	.	.	.
32gg	.	.	.	.
8bb	.	8e	8B	8G
32g	.	8r	8r	8r
32b	.	.	.	.
32ee	.	.	.	.
32gg	.	.	.	.
8bb	.	8e	8B	8G
32g	.	4r	4r	4r
32b	.	.	.	.
32ee	.	.	.	.
32gg	.	.	.	.
8bb	.	.	.	.
8g#	.	8g#	8G#	8G#
=30	=30	=30	=30	=30
2a	1r	8a	8A	8A
.	.	4aa	4f#	8AA
.	.	.	.	8AA
.	.	32gg	8d	8AA
.	.	32ff#	.	.
.	.	32ee	.	.
.	.	32dd	.	.
2ee	.	2cc#	8A	8AA
.	.	.	8A	8AA
.	.	.	8A	8AA
.	.	.	8A	8AA
=31	=31	=31	=31	=31
8dd	1r	4dd	4d	4D
24fff#	.	.	.	.
24eee	.	.	.	.
24ddd	.	.	.	.
24ccc#	.	2r	2r	4r
24bb	.	.	.	.
24aa	.	.	.	.
24gg	.	.	.	.
24ff#	.	.	.	.
24ee	.	.	.	.
4.dd	.	.	.	[2D
.	.	4a	4f#	.
8cc	.	.	.	.
=32	=32	=32	=32	=32
8b	1r	4b	4g	2D_
8dd	.	.	.	.
8cc#	.	4g	4e	.
8ee	.	.	.	.
8dd	.	4f#	4f#	4D]
24fff#	.	.	.	.
24eee	.	.	.	.
24ddd	.	.	.	.
24ccc#	.	4r	4r	4r
24bb	.	.	.	.
24aa	.	.	.	.
24gg	.	.	.	.
24ff#	.	.	.	.
24ee	.	.	.	.
=33	=33	=33	=33	=33
4.dd	1r	4r	4r	[1D
.	.	4a	4f#	.
8cc	.	.	.	.
8b	.	4b	4g	.
8dd	.	.	.	.
8cc#	.	4g	4e	.
8ee	.	.	.	.
=34	=34	=34	=34	=34
8.dd	1r	4f#	4f#	4D]
16d	.	.	.	.
16dd	.	4r	4r	4r
16d	.	.	.	.
16dd	.	.	.	.
16d	.	.	.	.
8dd	.	4f#	4d	4D
4.r	.	.	.	.
.	.	4r	4r	4r
=35	=35	=35	=35	=35
2dd	1r	8f#	8d	8D
.	.	8f#	8d	8d
.	.	8f#	8d	8d
.	.	8f#	8d	8d
8ff#	.	8f#	8d	8d
16ee	.	8f#	8d	8d
16dd	.	.	.	.
8dd	.	8f#	8d	8d
8dd	.	8f#	8d	8d
=36	=36	=36	=36	=36
8bb	1r	8g	8d	8D
16aa#	.	8g	8d	8d
16bb	.	.	.	.
8bb	.	8g	8d	8d
4r	.	8g	8d	8d
.	.	8g	8d	8d
8ccc#	.	8g	8d	8d
8ddd	.	8g	8d	8d
8bb	.	8g	8d	8d
=37	=37	=37	=37	=37
16bb	1r	8f#	8d	8D
16aa	.	.	.	.
16gg#	.	8f#	8d	8d
16aa	.	.	.	.
8aa	.	8f#	8d	8d
4r	.	8f#	8d	8d
.	.	8f#	8d	8d
8ccc#	.	8r	8r	8r
8ddd	.	[4d	4A	4F#
8f#	.	.	.	.
=38	=38	=38	=38	=38
4f#	1r	4.d]	2B	2G
8e	.	.	.	.
8b	.	8g	.	.
4b	.	4g	2c#	2A
8a	.	8f#	.	.
8g	.	8e	.	.
=39	=39	=39	=39	=39
16g	1r	16e	4d	4D
16f#	.	16d	.	.
16b	.	16g	.	.
16a	.	16f#	.	.
8a	.	8f#	4.r	4.r
2r	.	4r	.	.
.	.	8d	8d	8D
.	.	8f	8f	8F
8r	.	8a	8a	8A
=40	=40	=40	=40	=40
2dd	1r	16d	8d	8d
.	.	16f	.	.
.	.	16d	8d	8d
.	.	16f	.	.
.	.	16d	8d	8d
.	.	16f	.	.
.	.	16d	8d	8d
.	.	16f	.	.
8ff	.	16A	8d	8c
.	.	16f	.	.
16ee	.	16A	8d	8c
16dd	.	16f	.	.
8dd	.	16A	8d	8c
.	.	16f	.	.
8dd	.	16A	8d	8c
.	.	16f	.	.
=41	=41	=41	=41	=41
4.ddd	1r	16G#	8d	8B-
.	.	16f	.	.
.	.	16G#	8d	8B-
.	.	16f	.	.
.	.	16G#	8d	8B-
.	.	16f	.	.
8dd	.	16G#	8d	8B-
.	.	16f	.	.
8ff	.	16A	8d	8A
.	.	16f	.	.
16ee	.	16A	8d	8A
16dd	.	16f	.	.
8dd	.	16A	8d	8A
.	.	16f	.	.
8dd	.	16A	8d	8A
.	.	16f	.	.
=42	=42	=42	=42	=42
4.ddd	1r	16d	8B	8G#
.	.	16f	.	.
.	.	16d	8B	8G#
.	.	16f	.	.
.	.	16d	8B	8G#
.	.	16f	.	.
8dd	.	16d	8B	8G#
.	.	16f	.	.
8ff	.	16d	8B	8G
.	.	16f	.	.
16ee	.	16d	8B	8G
16dd	.	16f	.	.
8dd	.	16d	8B	8G
.	.	16f	.	.
8dd	.	16d	8B	8G
.	.	16f	.	.
=43	=43	=43	=43	=43
4.ddd	1r	16d	8B	8F#
.	.	16f#	.	.
.	.	16d	8B	8F#
.	.	16f#	.	.
.	.	16d	8B	8F#
.	.	16f#	.	.
8dd	.	16d	8B	8F#
.	.	16f#	.	.
8ddd	.	16d	8B	8E#
.	.	16g#	.	.
8dd	.	16d	8B	8E#
.	.	16g#	.	.
8ddd	.	16d	8B	8E#
.	.	16g#	.	.
8dd	.	16d	8B	8E#
.	.	16g#	.	.
=44	=44	=44	=44	=44
8ddd	1r	16d	8B	8E
.	.	16g#	.	.
8ccc	.	16d	8B	8E
.	.	16g#	.	.
8bb	.	16d	8B	8E
.	.	16g#	.	.
8aa	.	16d	8B	8E
.	.	16g#	.	.
8gg#	.	16d	8B	8E
.	.	16g#	.	.
8ff	.	16d	8B	8E
.	.	16g#	.	.
8ee	.	16d	8B	8E
.	.	16g#	.	.
8dd	.	16d	8B	8E
.	.	16g#	.	.
=45	=45	=45	=45	=45
4cc	1r	8a	2c	2A
.	.	8a	.	.
4.r	.	8cc	.	.
.	.	16b	.	.
.	.	16a	.	.
.	.	2g#	2d	2B
8b	.	.	.	.
8dd	.	.	.	.
16cc	.	.	.	.
16b	.	.	.	.
=46	=46	=46	=46	=46
8cc	1r	8a	4c	8r
8ee	.	8cc	.	8AA
4.aa	.	8ee	4r	8C
.	.	16dd	.	16BB
.	.	16cc	.	16AA
.	.	8b	[2e	8E
8gg#	.	8ee	.	8E
[4bb	.	4dd	.	8G#
.	.	.	.	16F#
.	.	.	.	16E
=47	=47	=47	=47	=47
8bb]	1r	4cc	4e]	2..A
8aa	.	.	.	.
8ccc	.	8ee	8A	.
8bb	.	8dd	8B	.
8aa	.	8cc	4.c	.
8gg	.	8b	.	.
8ff#	.	8a	.	.
8ee	.	8g	8c#	8A#
=48	=48	=48	=48	=48
4dd#	1r	4f#	4B	4B
2bb	.	4b	8d#	[2.BB
.	.	.	16c#	.
.	.	.	16d#	.
.	.	2cc	8e	.
.	.	.	16d#	.
.	.	.	16e	.
[4aa	.	.	8f#	.
.	.	.	16e	.
.	.	.	16f#	.
=49	=49	=49	=49	=49
4aa]	1r	2b	8d#	1BB]
.	.	.	16c#	.
.	.	.	16d#	.
2gg	.	.	8e	.
.	.	.	16d#	.
.	.	.	16e	.
.	.	2a	8c#	.
.	.	.	16B	.
.	.	.	16c#	.
[4ff#	.	.	8d#	.
.	.	.	16c#	.
.	.	.	16d#	.
=50	=50	=50	=50	=50
4ff#]	1r	2g	8e	8BB
.	.	.	16d#	8B
.	.	.	16e	.
2ee	.	.	4e	8c
.	.	.	.	16B
.	.	.	.	16c
.	.	2f#	4c	8A
.	.	.	.	16G#
.	.	.	.	16A
[4dd	.	.	[4B	8B
.	.	.	.	16A
.	.	.	.	16B
=51	=51	=51	=51	=51
4dd]	1r	2e	4B]	8G#
.	.	.	.	16F#
.	.	.	.	16G#
2cc	.	.	2A	8A
.	.	.	.	16G#
.	.	.	.	16A
.	.	2d	.	8F#
.	.	.	.	16E
.	.	.	.	16F#
4b	.	.	4G	8G
.	.	.	.	16F#
.	.	.	.	16G
=52	=52	=52	=52	=52
16b	1r	2e	4.c	4.C
16a	.	.	.	.
16ee	.	.	.	.
16dd	.	.	.	.
16cc	.	.	.	.
16b	.	.	.	.
16a	.	.	8c#	8C#
16g	.	.	.	.
16f#	.	8.d	8.d	8.D
16e	.	.	.	.
16d	.	.	.	.
16e	.	16e	16e	16E
16d	.	16d	16d	16D
16c	.	16c	16c	16C
16B	.	16B	16B	16BB
16A	.	16A	16A	16AA
=53	=53	=53	=53	=53
2g	1r	16B	16G	4GG
.	.	16d	16B	.
.	.	16B	16G	.
.	.	16d	16B	.
.	.	16B	16G	4r
.	.	16d	16B	.
.	.	16B	16G	.
.	.	16d	16B	.
8b	.	16B	16G	4GG
.	.	16d	16B	.
16a	.	16B	16G	.
16g	.	16d	16B	.
8g	.	16B	16G	4r
.	.	16d	16B	.
8g	.	16B	16G	.
.	.	16d	16B	.
=54	=54	=54	=54	=54
8ee	1r	16c	16G	4GG
.	.	16e	16c	.
16dd#	.	16c	16G	.
16ee	.	16e	16c	.
8ee	.	16c	16G	4r
.	.	16e	16c	.
8r	.	16c	16G	.
.	.	16e	16c	.
16ff#	.	8c	8G	4GG
16gg	.	.	.	.
16ff#	.	4r	4r	.
16gg	.	.	.	.
16ff#	.	.	.	4r
16gg	.	.	.	.
8r	.	8e	8c	.
=55	=55	=55	=55	=55
16ee	1r	8d	8B	4GG
16dd	.	.	.	.
16cc#	.	4r	4r	.
16dd	.	.	.	.
16cc#	.	.	.	8r
16dd	.	.	.	.
2r	.	16G	8G	8E
.	.	16g	.	.
.	.	16g	[2G	8D
.	.	16f#	.	.
.	.	16f#	.	8C
.	.	16e	.	.
.	.	16e	.	8BB
.	.	16d	.	.
8r	.	16d	.	8AA
.	.	16c	.	.
=56	=56	=56	=56	=56
4d	4B	4B	4G]	4GG
8d	16B	2r	2r	2r
.	16G	.	.	.
8e	8c	.	.	.
8d	16B	.	.	.
.	16G	.	.	.
8e	8c	.	.	.
8d	8B	8r	8r	8r
8f#	8A	8cc	8d	8D
=57	=57	=57	=57	=57
8g	8G	4b	4d	4GG
8d	8B	.	.	.
8d	16B	2r	2r	2r
.	16G	.	.	.
8e	8c	.	.	.
8d	16B	.	.	.
.	16G	.	.	.
8e	8c	.	.	.
8d	8B	8r	8r	8r
8f#	8A	8cc	8d	8D
=58	=58	=58	=58	=58
2g	2G	4b	2d	8GG
.	.	.	.	8BB
.	.	[2.g	.	8BB
.	.	.	.	8BB
8g	2G	.	8B	8BB
8f	.	.	8B	8BB
8e	.	.	8B	8BB
8d#	.	.	8B	8BB
=59	=59	=59	=59	=59
4d#	2G	1g_	8c	8C
.	.	.	8c	8C
[4e	.	.	8c	8C
.	.	.	8c	8C
16f#]	2G	.	8c	8C
16f#	.	.	.	.
16g	.	.	8c	8C
16f#	.	.	.	.
8g	.	.	8c	8C
16f#	.	.	8c	8C
16e	.	.	.	.
=60	=60	=60	=60	=60
8e	2G	1g]	8B	8BB
8d	.	.	8B	8BB
4d	.	.	8B	8BB
.	.	.	8B	8BB
8g	2G	.	8B	8BB
8f	.	.	8B	8BB
8e	.	.	8B	8BB
8d#	.	.	8B	8BB
=61	=61	=61	=61	=61
4.e	1r	8G	8c	4.C
.	.	8G#	8B	.
.	.	4.A	8c	.
8e#	.	.	4A	8C#
4.f#	.	.	.	4.D
.	.	8A#	8c#	.
.	.	[4B	8d	.
16a	.	.	[8B	8D#
16f#	.	.	.	.
=62	=62	=62	=62	=62
4.g	1r	8B]	8B]	4.E
.	.	8B	8d#	.
.	.	4.c	8e	.
8g#	.	.	4c	8E
4.a	.	.	.	4.F#
.	.	8c#	8e	.
.	.	[4d	8f#	.
8a#	.	.	[8d	8F#
=63	=63	=63	=63	=63
8b	1r	8d]	8d]	4G
16dd	.	4d	8g	.
16b	.	.	.	.
8cc	.	.	8f#	4A
16ee	.	4d	8e	.
16cc	.	.	.	.
8dd	.	.	2G	4B
8gg	.	4d	.	.
8ff	.	.	.	4BB
8dd#	.	[8g	.	.
=64	=64	=64	=64	=64
4.ee	1r	4g]	4c	4C
.	.	4.e	4.c	4.c
16ff#	.	.	.	.
16dd#	.	.	.	.
8ee	.	.	.	.
16b	.	8f	8d	8d
16g#	.	.	.	.
8a	.	8e	8c	8c
16bb	.	8f	8d	8d
16gg#	.	.	.	.
=65	=65	=65	=65	=65
4aa	1r	8e	8c	8c
.	.	16b	8f	8d
.	.	16g#	.	.
4r	.	4a	4e	4c
4.dd	.	4r	4r	4r
.	.	[4B	[4G	[4G
16ee	.	.	.	.
16cc#	.	.	.	.
=66	=66	=66	=66	=66
8dd	1r	8B]	8G]	8G]
16a	.	8c	8A	8A
16f#	.	.	.	.
8g	.	8d	8B	8B
16aa	.	8c	8A	8A
16ff#	.	.	.	.
4gg	.	8d	8B	8B
.	.	16a	8c	8A
.	.	16f#	.	.
4r	.	8g	8d	8B
.	.	8r	8r	8r
=67	=67	=67	=67	=67
2ccc	1r	1r	8c	8A
.	.	.	8c	8A
.	.	.	8c	8A
.	.	.	8c	8A
4.e-	.	.	8B-	8G
.	.	.	8B-	8G
.	.	.	8B-	8G
16d	.	.	8B-	8G
16e-	.	.	.	.
=68	=68	=68	=68	=68
4.d	1r	4.dd	8A	8F#
.	.	.	8A	8F#
.	.	.	8A	8F#
8e-	.	8cc#	8B-	8G
8d	.	8dd	8A	8F#
8e-	.	8cc#	8B-	8G
8d	.	8dd	8A	8F#
8e-	.	8cc#	8B-	8G
=69	=69	=69	=69	=69
4d	1r	4dd	4A	4F#
4.aa	.	[2.d	4r	4r
.	.	.	2A	2FF#
8ff#	.	.	.	.
8dd	.	.	.	.
8cc	.	.	.	.
=70	=70	=70	=70	=70
8b	1r	4d]	4B	4GG
8gg	.	.	.	.
8ff#	.	2.r	2.r	2.r
8ee	.	.	.	.
8dd	.	.	.	.
8cc	.	.	.	.
8b	.	.	.	.
8a	.	.	.	.
=71	=71	=71	=71	=71
2g	2G	[1G	8d	8BB
.	.	.	8d	8BB
.	.	.	8d	8BB
.	.	.	8d	8BB
8g	2G	.	8B	8BB
8f	.	.	8B	8BB
8e	.	.	8B	8BB
8d#	.	.	8B	8BB
=72	=72	=72	=72	=72
4d#	2G	1G_	8c	8C
.	.	.	8c	8C
4..e	.	.	8c	8C
.	.	.	8c	8C
.	2G	.	8c	8C
.	.	.	8c	8C
8.f#	.	.	.	.
.	.	.	8c	8C
16e	.	.	8c	8C
16f#	.	.	.	.
=73	=73	=73	=73	=73
4g	2G	1G_	8B	8BB
.	.	.	8d	8BB
[4g	.	.	8d	8BB
.	.	.	8d	8BB
16g]	2G	.	8d	8BB
16a	.	.	.	.
16f	.	.	8d	8BB
16g	.	.	.	.
16e	.	.	8B	8BB
16f	.	.	.	.
16d	.	.	8B	8BB
16e	.	.	.	.
=74	=74	=74	=74	=74
4d#	2G	1G_	8c	8C
.	.	.	8c	8C
4..e	.	.	8c	8C
.	.	.	8c	8C
.	2G	.	8c	8C
.	.	.	8c	8C
8.f#	.	.	.	.
.	.	.	8c	8C
16e	.	.	8c	8C
16f#	.	.	.	.
=75	=75	=75	=75	=75
2g	2G	2G]	8B	8BB
.	.	.	8d	8BB
.	.	.	8d	8BB
.	.	.	8d	8BB
2g#	2G#	2f	8d	8BB
.	.	.	8d	8BB
.	.	.	8d	8BB
.	.	.	8d	8BB
=76	=76	=76	=76	=76
8a	8A	8e	8e	8C
32c	2..r	8r	8r	8r
32e	.	.	.	.
32a	.	.	.	.
32cc	.	.	.	.
8ee	.	8a	8e	8C
32c	.	8r	8r	8r
32e	.	.	.	.
32a	.	.	.	.
32cc	.	.	.	.
8ee	.	8a	8e	8C
32c	.	4r	4r	4r
32e	.	.	.	.
32a	.	.	.	.
32cc	.	.	.	.
8ee	.	.	.	.
8c#	.	8c#	8c#	8C#
=77	=77	=77	=77	=77
2d	1r	8d	8d	8D
.	.	4dd	4b	8D
.	.	.	.	8D
.	.	32cc	8g	8D
.	.	32b	.	.
.	.	32a	.	.
.	.	32g	.	.
2a	.	2f#	8d	8D
.	.	.	8d	8D
.	.	.	8d	8D
.	.	.	8d	8D
=78	=78	=78	=78	=78
8g	1r	4g	4g	4GG
24bb	.	.	.	.
24aa	.	.	.	.
24gg	.	.	.	.
24ff#	.	2r	2r	4r
24ee	.	.	.	.
24dd	.	.	.	.
24cc	.	.	.	.
24b	.	.	.	.
24a	.	.	.	.
4.g	.	.	.	[2GG
.	.	4d	4B	.
8f	.	.	.	.
=79	=79	=79	=79	=79
8e	1r	4e	4c	2GG_
8g	.	.	.	.
8f#	.	4c	4A	.
8a	.	.	.	.
8g	.	4B	4B	4GG]
24bb	.	.	.	.
24aa	.	.	.	.
24gg	.	.	.	.
24ff#	.	4r	4r	4r
24ee	.	.	.	.
24dd	.	.	.	.
24cc	.	.	.	.
24b	.	.	.	.
24a	.	.	.	.
=80	=80	=80	=80	=80
4.g	1r	4r	4r	[1GG
.	.	4d	4B	.
8f	.	.	.	.
8e	.	4e	4c	.
8g	.	.	.	.
8f#	.	4c	4A	.
8a	.	.	.	.
=81	=81	=81	=81	=81
8.g	1r	4B	4B	4GG]
16G	.	.	.	.
16g	.	4r	4r	4r
16G	.	.	.	.
16g	.	.	.	.
16G	.	.	.	.
4g	.	4B	4G	4GG
4r	.	4r	4r	4r
==	==	==	==	==
*-	*-	*-	*-	*-
!!!RWG1: This file contains only pitch and duration data.
!!!RWG2: Transposing instruments are not transposed.
!!!RWG3: Spines may have incompatible meters.
!!!RWG4: Durations of rests and tied notes may be interpreted.
!!!RWG: Key is interpreted using the Humdrum key tool.
!!!AFT: stage1
!!!END: 1997/04/15
!!format changes:
!!content changes:
!!public access: complete
!!!KEY: 1489901384
!!!EMD: Converted from MuseData to Humdrum Dec 16, 2000, by Andreas Kornstaedt using muse2kern.
